static/fa/svgs/solid/diamond-turn-right.svg

<svg xmlns="http://www.w3.org/2000/svg" viewBox="0 0 512 512"><!--! Font Awesome Free 6.1.1 by @fontawesome - https://fontawesome.com License - https://fontawesome.com/license/free (Icons: CC BY 4.0, Fonts: SIL OFL 1.1, Code: MIT License) Copyright 2022 Fonticons, Inc. --><path d="M497.1 222.1l-208.1-208.1c-9.364-9.364-21.62-14.04-33.89-14.03C243.7 .0092 231.5 4.686 222.1 14.03L14.03 222.1C4.676 231.5 .0002 243.7 .0004 255.1c.0002 12.26 4.676 24.52 14.03 33.87l208.1 208.1C231.5 507.3 243.7 511.1 256 511.1c12.26 0 24.52-4.677 33.87-14.03l208.1-208.1c9.352-9.353 14.03-21.61 14.03-33.87C511.1 243.7 507.3 231.5 497.1 222.1zM410.5 252l-96 84c-10.79 9.545-26.53 .9824-26.53-12.03V272H223.1l-.0001 48C223.1 337.6 209.6 352 191.1 352S159.1 337.6 159.1 320V240c0-17.6 14.4-32 32-32h95.1V156c0-13.85 16.39-20.99 26.53-12.03l96 84C414 231 415.1 235.4 415.1 240S414 249 410.5 252z"/></svg>

<svg xmlns="http://www.w3.org/2000/svg" viewBox="0 0 512 512"><!--! Font Awesome Free 6.1.1 by @fontawesome - https://fontawesome.com License - https://fontawesome.com/license/free (Icons: CC BY 4.0, Fonts: SIL OFL 1.1, Code: MIT License) Copyright 2022 Fonticons, Inc.--><path d="M497.1 222.1 289 14C279.636 4.636 267.38-.04 255.11-.03 243.7.01 231.5 4.686 222.1 14.03L14.03 222.1C4.676 231.5 0 243.7 0 255.1c0 12.26 4.676 24.52 14.03 33.87l208.1 208.1C231.5 507.3 243.7 511.1 256 511.1c12.26 0 24.52-4.677 33.87-14.03l208.1-208.1c9.352-9.353 14.03-21.61 14.03-33.87-.9-11.4-4.7-23.6-14.9-33zM410.5 252l-96 84c-10.79 9.545-26.53.982-26.53-12.03V272H223.1v48c0 17.6-13.5 32-32 32s-32-14.4-32-32v-80c0-17.6 14.4-32 32-32h95.1v-52c0-13.85 16.39-20.99 26.53-12.03l96 84C414 231 415.1 235.4 415.1 240s-1.1 9-4.6 12z"/></svg>
